files/1/128x128/places/folder-templates.svg

<svg width="128" xmlns="http://www.w3.org/2000/svg" height="128" viewBox="0 0 128 128" xmlns:xlink="http://www.w3.org/1999/xlink">
<g style="stroke:#a57953">
<path style="fill:#a57953" d="M 4.34668 24.5 C 3.887695 24.453125 3.5 23.992188 3.5 23.498047 L 3.5 4.506836 C 3.5 3.979492 3.946289 3.5 4.4375 3.5 L 27.5625 3.5 C 28.053711 3.5 28.5 3.979492 28.5 4.506836 L 28.5 20.742188 C 28.5 21.268555 27.782227 22.025391 27.290039 22.025391 L 18.825195 22.010742 L 18.825195 23.334961 C 18.825195 23.856445 18.414062 24.5 17.925781 24.5 L 4.4375 24.5 C 4.408203 24.5 4.378906 24.5 4.34668 24.5 Z " transform="matrix(4 0 0 4 0 4)"/>
<path style="fill:#e9b080" d="M 1.549805 5.5 C 0.980469 5.546875 0.5 6.007812 0.5 6.501953 L 0.5 25.493164 C 0.5 26.020508 1.052734 26.5 1.663086 26.5 L 30.336914 26.5 C 30.947266 26.5 31.5 26.020508 31.5 25.493164 L 31.5 9.257812 C 31.5 8.731445 30.609375 7.974609 30 7.974609 L 19.50293 7.989258 L 19.50293 6.665039 C 19.50293 6.143555 18.993164 5.5 18.387695 5.5 L 1.663086 5.5 C 1.625977 5.5 1.589844 5.5 1.549805 5.5 Z " transform="matrix(4 0 0 4 0 4)"/>
</g>
<g style="fill:#a57953">
<path d="M 56 56 L 56 60 L 60 60 L 60 56 Z "/>
<path d="M 72 56 L 72 60 L 76 60 L 76 64 L 80 64 L 80 58.671875 C 80 56 77.34375 56 77.34375 56 Z "/>
<path d="M 64 56 L 64 60 L 68 60 L 68 56 Z "/>
<path d="M 44 64 L 48 64 L 48 60 L 52 60 L 52 56 L 46.671875 56 C 44 56 44 58.65625 44 58.65625 Z "/>
<path d="M 52 92 L 52 88 L 48 88 L 48 84 L 44 84 L 44 89.328125 C 44 92 46.65625 92 46.65625 92 Z "/>
<path d="M 68 92 L 68 88 L 64 88 L 64 92 Z "/>
<path d="M 60 92 L 60 88 L 56 88 L 56 92 Z "/>
<path d="M 44 80 L 48 80 L 48 76 L 44 76 Z "/>
<path d="M 44 72 L 48 72 L 48 68 L 44 68 Z "/>
<path d="M 80 84 L 76 84 L 76 88 L 72 88 L 72 92 L 77.328125 92 C 80 92 80 89.34375 80 89.34375 Z "/>
<path d="M 80 68 L 76 68 L 76 72 L 80 72 Z "/>
<path d="M 80 76 L 76 76 L 76 80 L 80 80 Z "/>
</g>
</svg>

<?xml version="1.0" encoding="UTF-8" standalone="no"?>
<svg
   xmlns:dc="http://purl.org/dc/elements/1.1/"
   xmlns:cc="http://creativecommons.org/ns#"
   xmlns:rdf="http://www.w3.org/1999/02/22-rdf-syntax-ns#"
   xmlns:svg="http://www.w3.org/2000/svg"
   xmlns="http://www.w3.org/2000/svg"
   xmlns:sodipodi="http://sodipodi.sourceforge.net/DTD/sodipodi-0.dtd"
   xmlns:inkscape="http://www.inkscape.org/namespaces/inkscape"
   width="128"
   height="128"
   viewBox="0 0 128 128"
   id="svg3071"
   version="1.1"
   inkscape:version="0.48.5 r10040"
   sodipodi:docname="folder-templates.svg">
  <metadata
     id="metadata3109">
    <rdf:RDF>
      <cc:Work
         rdf:about="">
        <dc:format>image/svg+xml</dc:format>
        <dc:type
           rdf:resource="http://purl.org/dc/dcmitype/StillImage" />
      </cc:Work>
    </rdf:RDF>
  </metadata>
  <defs
     id="defs3107" />
  <sodipodi:namedview
     pagecolor="#ffffff"
     bordercolor="#666666"
     borderopacity="1"
     objecttolerance="10"
     gridtolerance="10"
     guidetolerance="10"
     inkscape:pageopacity="0"
     inkscape:pageshadow="2"
     inkscape:window-width="1280"
     inkscape:window-height="969"
     id="namedview3105"
     showgrid="false"
     inkscape:zoom="3.6875"
     inkscape:cx="18.874859"
     inkscape:cy="81.18645"
     inkscape:window-x="0"
     inkscape:window-y="0"
     inkscape:window-maximized="1"
     inkscape:current-layer="svg3071" />
  <path
     style="fill:#e9b080;fill-opacity:1;stroke:none"
     d="m 18,15 c -2.927834,0 -6,3 -6,6.000001 l 0,2 -6,0 c -2.940197,0 -6,2.99066 -6,6 L 0,107 c 0,4 2,6 6,6 l 116,0 c 3.13523,0 6,-2.71669 6,-6 l 0,-67.999999 c 0,-3.009856 -2.91008,-6 -6,-6 l -6,0 0,-12 C 116,18.077688 113.09356,15 110,15 z"
     id="path6-6"
     inkscape:connector-curvature="0"
     sodipodi:nodetypes="ssccssssscccsss" />
  <path
     style="fill:#000000;fill-opacity:0.32156864"
     inkscape:connector-curvature="0"
     id="path3081"
     d="m 56,56 0,4 4,0 0,-4 z" />
  <path
     style="fill:#000000;fill-opacity:0.32156864"
     inkscape:connector-curvature="0"
     id="path3083"
     d="m 72,56 0,4 4,0 0,4 4,0 0,-5.328125 C 80,56 77.34375,56 77.34375,56 z" />
  <path
     style="fill:#000000;fill-opacity:0.32156864"
     inkscape:connector-curvature="0"
     id="path3085"
     d="m 64,56 0,4 4,0 0,-4 z" />
  <path
     style="fill:#000000;fill-opacity:0.32156864"
     inkscape:connector-curvature="0"
     id="path3087"
     d="m 44,64 4,0 0,-4 4,0 0,-4 -5.328125,0 C 44,56 44,58.65625 44,58.65625 z" />
  <path
     style="fill:#000000;fill-opacity:0.32156864"
     inkscape:connector-curvature="0"
     id="path3089"
     d="m 52,92 0,-4 -4,0 0,-4 -4,0 0,5.328125 C 44,92 46.65625,92 46.65625,92 z" />
  <path
     style="fill:#000000;fill-opacity:0.32156864"
     inkscape:connector-curvature="0"
     id="path3091"
     d="m 68,92 0,-4 -4,0 0,4 z" />
  <path
     style="fill:#000000;fill-opacity:0.32156864"
     inkscape:connector-curvature="0"
     id="path3093"
     d="m 60,92 0,-4 -4,0 0,4 z" />
  <path
     style="fill:#000000;fill-opacity:0.32156864"
     inkscape:connector-curvature="0"
     id="path3095"
     d="m 44,80 4,0 0,-4 -4,0 z" />
  <path
     style="fill:#000000;fill-opacity:0.32156864"
     inkscape:connector-curvature="0"
     id="path3097"
     d="m 44,72 4,0 0,-4 -4,0 z" />
  <path
     style="fill:#000000;fill-opacity:0.32156864"
     inkscape:connector-curvature="0"
     id="path3099"
     d="m 80,84 -4,0 0,4 -4,0 0,4 5.328125,0 C 80,92 80,89.34375 80,89.34375 z" />
  <path
     style="fill:#000000;fill-opacity:0.32156864"
     inkscape:connector-curvature="0"
     id="path3101"
     d="m 80,68 -4,0 0,4 4,0 z" />
  <path
     style="fill:#000000;fill-opacity:0.32156864"
     inkscape:connector-curvature="0"
     id="path3103"
     d="m 80,76 -4,0 0,4 4,0 z" />
  <path
     sodipodi:nodetypes="sscsssssssscsssssscssssssss"
     inkscape:connector-curvature="0"
     style="fill:#000000;fill-opacity:0.32156863;stroke:none"
     d="m 18,15 c -2.927834,0 -6,3 -6,6.000001 l 0,2 -6,0 c -2.940197,0 -6,2.99066 -6,6 L 0,107 c 0,4 2,6 6,6 l 116,0 c 3.13523,0 6,-2.71669 6,-6 l 0,-67.999999 c 0,-3.009856 -2.91008,-6 -6,-6 l -6,0 0,-12 C 116,18.077688 113.09356,15 110,15 z m -12,12.000001 68.000004,0 c 1.18035,0 2,1.02954 2,2 l 0,8 45.999996,0 c 1.0111,0 2,1.017484 2,2 L 124,107 c 0,1.04258 -0.95753,2 -2,2 L 6,109 c -0.92859,0 -2,-0.79269 -2,-2 L 4,29.000001 c 0,-0.98481 1.033058,-2 2,-2 z"
     id="path3778" />
</svg>
